!!!!SEGMENT: pl-sa--l-1636--052_anonim--keyboard-piece.krn
!!!cenid: 17xx:759
!!!COM: Anonim
!!!COM-rismid: pe30004985
!!!CDT:
!!!CNT:
!!!OTL: [Keyboard piece]
!!!PDT:
!!!AGN: Secular
!!!SMS-siglum: PL-SA
!!!SMS-shelfmark: L 1636
!!!SMS-shelfwork: 052 W
!!!SMS-variant:
!!!SMS-altvar:
!!!NIFC-rismid: 1001076819
!!!URL-scan: http://repozytorium.nifc.pl/skany/pl-sa-nut--l1636
!!!ONB-nifc: 14v, skan 0018, s. 1-2
**kern	**kern
*part2	*part1
*staff2	*staff1
*Iempty	*Iempty
*I"	*I"
*I'keyb	*I'keyb
*clefF4	*clefG2
*k[]	*k[]
*G:	*G:
*M2/2	*M2/2
*met(c|)	*met(c|)
=1	=1
!LO:SIC:o:s:=:v:wszystkie caudy z prawej	!LO:SIC:o:s:=:v:wszystkie caudy z prawej
1G/ 1D/ 1GG/	1dd/ 1b/ 1g/
=2-	=2-
1G/ 1D/ 1GG/	1b/ 1g/ 1d/
=3-	=3-
*	*2\right
*	*^
1D/ 1DD/	2b/	2g\
.	4a/	4f#X\
.	4g/	4e\
=4	=4	=4
*2\right	*	*
*^	*	*
[1d/	2.D\	2a/	2.f#X\
.	.	2dd/	.
.	4E\	.	4g\
=5	=5	=5	=5
1d/_	1F#X\	2dd/	1a\
.	.	2cc/	.
*	*	*v	*v
=6	=6	=6
2d/]	2G\	2b/
[2G/	2BB\	2g/
=7	=7	=7
*	*	*^
2G/]	2C\	1a/	2e-X\
2F#X/	2D\	.	[2d\
=8	=8	=8	=8
1G/	1E-X\	1g/	2d\]
.	.	.	2c\
=9	=9	=9	=9
1A/	1D\	4f/	2d\
.	.	4g/	.
.	.	4a/	2f\
.	.	4b/	.
=10	=10	=10	=10
2.A/	2.AA\	2.cc/	4f\
.	.	.	8e\L
.	.	.	8d\J
.	.	.	2e\
8G/L	4BB\	8b/L	.
8F/J	.	8a/J	.
!!LO:LB:g=original
=11	=11	=11	=11
4E/	4C\	4g/	2e\
4F/	8BB\L	4a/	.
.	8AA\J	.	.
2G/	4GG\	4b/	2d\
.	4AA\	4cc/	.
=12	=12	=12	=12
2G/	4BB\	1dd/	4d\
.	4C\	.	4e\
2F/	4D\	.	4f\
.	4E\	.	4g\
*v	*v	*	*
=13	=13	=13
4F\	4a/	2f\
4G\	4b/	.
2A\	2cc/	4f\
.	.	8e\L
.	.	8d\J
=14	=14	=14
2A\	2cc/	4e\
.	.	4f#X\
2G\	[2b/	[2g/
=15	=15	=15
2.D/	2b/]	2g\]
.	2a/	2f#X\
4C/	.	.
=16	=16	=16
!	!LO:N:xstem:	!
2.BB/	4a/	1d\
.	4g/	.
.	2g/	.
8AA/L	.	.
8GG/J	.	.
=17	=17	=17
1D/ 1DD/	2g/	1d\
.	2f#X/	.
*	*v	*v
=18	=18
!LO:N:vis=0	!LO:N:vis=0
1G/ 1D/ 1GG/	1g/ 1d/ 1G/
=19	=19
!LO:N:vis=0	!LO:N:vis=0
1G/ 1D/ 1GG/	1g/ 1d/ 1G/
==	==
*-	*-
!!!system-decoration: s1,s2
!!!EED: Leszek Kubiak
!!!EST: 2020-12-08
!!!AIN: 2 empty
!!!ENC: Andrzej Borzym
!!!END: 2020-06-11
